static/images/pieces/mansindam/tomato/br.svg

<svg height="52.157" width="52.157" xmlns="http://www.w3.org/2000/svg"><path d="m26.078001 48.76 13.673-4.484 6.418-40.907h-40.1810002l6.4190002 40.907z" fill="#ede9dd" opacity=".9801" stroke="#393830" stroke-opacity=".992157" stroke-width="1.04769"/><g style="fill-rule:evenodd;stroke:#000;stroke-width:1.5;stroke-linecap:round;stroke-linejoin:round;fill:#3d3c33" transform="matrix(-1 0 0 -1 48.578494 46.161328)"><g stroke="#3d3c33" stroke-linecap="butt"><path d="m9 39h27v-3h-27zm3.5-7 1.5-2.5h17l1.5 2.5zm-.5 4v-4h21v4z"/><path d="m14 29.5v-13h17v13z" stroke-linejoin="miter"/><path d="m14 16.5-3-2.5h23l-3 2.5zm-3-2.5v-5h4v2h5v-2h5v2h5v-2h4v5z"/></g><path d="m12 35.5h21m-20-4h19m-18-2h17m-17-13h17m-20-2.5h23" stroke="#ede9dd" stroke-linejoin="miter" stroke-width="1"/></g></svg>

<?xml version="1.0" encoding="UTF-8" standalone="no"?>
<svg
   width="52.157"
   height="52.157"
   version="1.1"
   id="svg10503"
   sodipodi:docname="Rook DOWN.svg"
   inkscape:version="1.3 (0e150ed6c4, 2023-07-21)"
   xmlns:inkscape="http://www.inkscape.org/namespaces/inkscape"
   xmlns:sodipodi="http://sodipodi.sourceforge.net/DTD/sodipodi-0.dtd"
   xmlns="http://www.w3.org/2000/svg"
   xmlns:svg="http://www.w3.org/2000/svg"
   xmlns:rdf="http://www.w3.org/1999/02/22-rdf-syntax-ns#"
   xmlns:cc="http://creativecommons.org/ns#"
   xmlns:dc="http://purl.org/dc/elements/1.1/">
  <metadata
     id="metadata10509">
    <rdf:RDF>
      <cc:Work
         rdf:about="">
        <dc:format>image/svg+xml</dc:format>
        <dc:type
           rdf:resource="http://purl.org/dc/dcmitype/StillImage" />
      </cc:Work>
    </rdf:RDF>
  </metadata>
  <defs
     id="defs10507" />
  <sodipodi:namedview
     pagecolor="#ffffff"
     bordercolor="#666666"
     borderopacity="1"
     objecttolerance="10"
     gridtolerance="10"
     guidetolerance="10"
     inkscape:pageopacity="0"
     inkscape:pageshadow="2"
     inkscape:window-width="3840"
     inkscape:window-height="2036"
     id="namedview10505"
     showgrid="false"
     inkscape:zoom="13.665732"
     inkscape:cx="66.919211"
     inkscape:cy="9.146967"
     inkscape:window-x="-12"
     inkscape:window-y="-12"
     inkscape:window-maximized="1"
     inkscape:current-layer="svg10503"
     inkscape:showpageshadow="2"
     inkscape:pagecheckerboard="0"
     inkscape:deskcolor="#d1d1d1" />
  <path
     d="m 26.078001,48.76 13.673,-4.484 6.418,-40.907 H 5.9880008 l 6.4190002,40.907 z"
     opacity="0.9801"
     fill="#fee572"
     fill-opacity=".992"
     stroke="#000000"
     stroke-width="1.04769"
     id="path10471"
     style="fill:#ede9dd;fill-opacity:1;stroke:#393830;stroke-opacity:0.992157" />
  <g
     fill-rule="evenodd"
     stroke="#000000"
     stroke-width="1.5"
     stroke-linecap="round"
     stroke-linejoin="round"
     id="g4-2"
     transform="rotate(-180,24.289247,23.080664)"
     style="fill:#3d3c33;fill-opacity:1">
    <path
       d="M 9,39 H 36 V 36 H 9 Z M 12.5,32 14,29.5 H 31 L 32.5,32 Z M 12,36 v -4 h 21 v 4 z"
       stroke-linecap="butt"
       id="path1-7"
       style="fill:#3d3c33;fill-opacity:1;stroke:#3d3c33;stroke-opacity:1" />
    <path
       d="m 14,29.5 v -13 h 17 v 13 z"
       stroke-linecap="butt"
       stroke-linejoin="miter"
       id="path2-2"
       style="fill:#3d3c33;fill-opacity:1;stroke:#3d3c33;stroke-opacity:1" />
    <path
       d="M 14,16.5 11,14 h 23 l -3,2.5 z M 11,14 V 9 h 4 v 2 h 5 V 9 h 5 v 2 h 5 V 9 h 4 v 5 z"
       stroke-linecap="butt"
       id="path3-8"
       style="fill:#3d3c33;fill-opacity:1;stroke:#3d3c33;stroke-opacity:1" />
    <path
       d="m 12,35.5 h 21 m -20,-4 h 19 m -18,-2 H 31 M 14,16.5 H 31 M 11,14 h 23"
       fill="none"
       stroke="#ececec"
       stroke-width="1"
       stroke-linejoin="miter"
       id="path4-1"
       style="fill:#3d3c33;fill-opacity:1;stroke:#ede9dd;stroke-opacity:1" />
  </g>
</svg>
